theme/essential/pix_core/docs.svg

<!DOCTYPE svg PUBLIC "-//W3C//DTD SVG 1.1//EN" "http://www.w3.org/Graphics/SVG/1.1/DTD/svg11.dtd" [
	<!ENTITY ns_flows "http://ns.adobe.com/Flows/1.0/">
]><svg xmlns="http://www.w3.org/2000/svg" width="16" height="16" viewBox="0 0 16 16" preserveAspectRatio="xMinYMid meet" overflow="visible"><path d="M8 0c-4.4 0-8 3.6-8 8s3.6 8 8 8 8-3.6 8-8-3.6-8-8-8zm0 14c-3.3 0-6-2.7-6-6s2.7-6 6-6 6 2.7 6 6-2.7 6-6 6zm1.2-2c0 .5-.5 1-1 1h-.4c-.5 0-1-.5-1-1v-4.6c0-.5.5-1 1-1h.5c.5 0 1 .5 1 1v4.6zm0-7.8c0 .7-.6 1.2-1.2 1.2-.7 0-1.2-.6-1.2-1.2 0-.7.5-1.2 1.2-1.2s1.2.5 1.2 1.2z" fill="#999"/></svg>

<?xml version="1.0" encoding="utf-8"?>
<!-- Generator: Adobe Illustrator 15.1.0, SVG Export Plug-In  -->
<!DOCTYPE svg PUBLIC "-//W3C//DTD SVG 1.1//EN" "http://www.w3.org/Graphics/SVG/1.1/DTD/svg11.dtd" [
	<!ENTITY ns_flows "http://ns.adobe.com/Flows/1.0/">
]>
<svg version="1.1"
	 xmlns="http://www.w3.org/2000/svg" xmlns:xlink="http://www.w3.org/1999/xlink" xmlns:a="http://ns.adobe.com/AdobeSVGViewerExtensions/3.0/"
	 x="0px" y="0px" width="16px" height="16px" viewBox="0 0 16 16" style="overflow:visible;enable-background:new 0 0 16 16;"
	 xml:space="preserve" preserveAspectRatio="xMinYMid meet">
<defs>
</defs>
<path style="fill:#29a1c4;" d="M8,0C3.6,0,0,3.6,0,8c0,4.4,3.6,8,8,8c4.4,0,8-3.6,8-8C16,3.6,12.4,0,8,0z M8,14c-3.3,0-6-2.7-6-6
	c0-3.3,2.7-6,6-6c3.3,0,6,2.7,6,6C14,11.3,11.3,14,8,14z M9.2,12c0,0.5-0.5,1-1,1H7.8c-0.5,0-1-0.5-1-1V7.4c0-0.5,0.5-1,1-1h0.5
	c0.5,0,1,0.5,1,1V12z M9.2,4.2c0,0.7-0.6,1.2-1.2,1.2c-0.7,0-1.2-0.6-1.2-1.2C6.8,3.5,7.3,3,8,3C8.7,3,9.2,3.5,9.2,4.2z"/>
</svg>
